src/images/icons/modern.svg

<svg width="61" height="63" viewBox="0 0 61 63" fill="none" xmlns="http://www.w3.org/2000/svg">
<g clip-path="url(#clip0_1_2694)">
<path d="M48.8057 10.0378H28.5706C27.2533 10.0378 26.1818 11.1084 26.1818 12.4244V20.7926L11.1488 27.0962C10.9786 27.1675 10.8629 27.328 10.8499 27.512C10.8368 27.6961 10.928 27.8718 11.0864 27.9667L13.0035 29.1131V41.3288C12.0231 41.5521 11.2875 42.4287 11.2875 43.4776V44.6551C11.2875 44.9251 11.5068 45.1442 11.777 45.1442H15.21C15.4803 45.1442 15.6996 44.9251 15.6996 44.6551V43.4776C15.6996 42.4301 14.9638 41.5547 13.9826 41.33V29.6985L15.4985 30.6049C15.4519 30.9541 15.4926 29.9963 15.4768 36.2921C15.4768 38.3617 20.7829 39.4703 26.1818 39.5339V49.0671C26.1818 49.5595 26.3327 50.0175 26.5907 50.3976C27.02 51.032 27.7467 51.4501 28.5693 51.4501H48.8044C50.1205 51.4501 51.1911 50.3802 51.1911 49.0658C51.191 49.1311 51.1884 47.0464 51.1911 12.4247C51.1911 11.1265 50.1166 10.0378 48.8057 10.0378ZM14.7205 43.4776V44.166H12.2666V43.4776C12.2666 42.8 12.8158 42.2485 13.4905 42.2485C14.1687 42.2485 14.7205 42.8 14.7205 43.4776ZM48.8057 50.4694H28.5706C28.0851 50.4694 27.6561 50.2239 27.4025 49.8512C27.2506 49.6267 27.1618 49.3564 27.1618 49.0658V45.7612H50.2094V49.0671C50.2094 49.8331 49.5704 50.4694 48.8057 50.4694ZM50.2094 44.7831H27.1609V39.5368C29.7969 39.5066 37.8722 38.9267 37.8722 36.2921C37.8693 32.3371 37.8792 30.7333 37.8598 30.5975L42.256 27.9667C42.4144 27.8718 42.5055 27.6961 42.4924 27.512C42.4794 27.328 42.3637 27.1675 42.1935 27.0962L27.1609 20.7924V16.7074H50.2094V44.7831ZM26.6713 33.0449C23.9558 33.0449 18.7273 33.3953 16.4559 34.8771C16.4703 30.3447 16.2985 30.6399 16.8572 30.2555C18.2682 29.2175 22.3038 28.4928 26.6713 28.4928C28.5762 28.4928 36.8931 29.016 36.8931 30.7752V34.8777C34.6004 33.3821 29.3985 33.0449 26.6713 33.0449ZM27.1618 12.4247C27.1618 11.6494 27.7932 11.0186 28.5693 11.0186H48.8044C49.5812 11.0186 50.2094 11.6582 50.2094 12.4244V15.7293H27.1618V12.4247ZM26.6713 21.648L40.923 27.6241L37.3917 29.7353C35.5143 27.8753 29.3039 27.5146 26.6713 27.5146C24.0353 27.5146 17.8245 27.8764 15.951 29.7359L12.4186 27.6241L26.6713 21.648ZM16.4559 36.2921C16.4559 35.5005 19.9644 34.0231 26.6713 34.0231C33.3824 34.0231 36.8931 35.5005 36.8931 36.2921C36.8931 37.0843 33.3824 38.5618 26.6713 38.5618C19.9644 38.5618 16.4559 37.0843 16.4559 36.2921Z" fill="#FF6B09"/>
<path d="M38.6865 46.4988C37.7938 46.4988 37.0674 47.2241 37.0674 48.1163C37.0674 49.0086 37.7938 49.7346 38.6865 49.7346C39.5796 49.7346 40.3059 49.0086 40.3059 48.1163C40.3059 47.2241 39.5796 46.4988 38.6865 46.4988ZM38.6865 48.7564C38.3337 48.7564 38.0465 48.4692 38.0465 48.1163C38.0465 47.7635 38.3337 47.477 38.6865 47.477C39.0396 47.477 39.3268 47.7635 39.3268 48.1163C39.3268 48.4692 39.0396 48.7564 38.6865 48.7564Z" fill="#FF6B09"/>
<path d="M40.5541 12.8848H36.8193V13.8629H40.5541V12.8848Z" fill="#FF6B09"/>
</g>
<path d="M60 9.43569V1.18359H1V61.306H60V53.0539" stroke="#FF6B09" stroke-width="2"/>
<defs>
<clipPath id="clip0_1_2694">
<rect width="41.998" height="41.0837" fill="white" transform="translate(10.0273 10.2021)"/>
</clipPath>
</defs>
</svg>

<svg width="61" height="63" fill="none" xmlns="http://www.w3.org/2000/svg"><g clip-path="url(#a)" fill="#FF6B09"><path d="M48.806 10.038H28.57a2.39 2.39 0 0 0-2.39 2.386v8.369L11.15 27.096a.488.488 0 0 0-.063.87l1.918 1.147V41.33a2.207 2.207 0 0 0-1.716 2.149v1.177c0 .27.219.49.489.49h3.433c.27 0 .49-.22.49-.49v-1.177a2.208 2.208 0 0 0-1.717-2.148V29.699l1.515.906c-.046.35-.005-.609-.021 5.687 0 2.07 5.306 3.178 10.705 3.242v9.533a2.387 2.387 0 0 0 2.387 2.383h20.235a2.388 2.388 0 0 0 2.387-2.384c0 .065-.003-2.02 0-36.641a2.403 2.403 0 0 0-2.385-2.387zM14.72 43.478v.688h-2.454v-.688c0-.678.549-1.23 1.224-1.23.678 0 1.23.552 1.23 1.23zm34.085 6.991H28.57c-.486 0-.915-.245-1.169-.618a1.397 1.397 0 0 1-.24-.785V45.76h23.047v3.306c0 .766-.639 1.402-1.403 1.402zm1.403-5.686H27.161v-5.246c2.636-.03 10.711-.61 10.711-3.245-.003-3.955.007-5.559-.012-5.695l4.396-2.63a.49.49 0 0 0-.063-.87l-15.032-6.305v-4.085h23.048v28.076zM26.671 33.045c-2.715 0-7.944.35-10.215 1.832.014-4.532-.157-4.237.401-4.622 1.411-1.037 5.447-1.762 9.814-1.762 1.905 0 10.222.523 10.222 2.282v4.103c-2.293-1.496-7.495-1.833-10.222-1.833zm.49-20.62c0-.776.632-1.406 1.408-1.406h20.235c.777 0 1.405.64 1.405 1.405v3.305H27.162v-3.304zm-.49 9.223 14.252 5.976-3.531 2.111c-1.878-1.86-8.088-2.22-10.72-2.22-2.637 0-8.848.361-10.721 2.22l-3.532-2.11 14.252-5.977zM16.456 36.292c0-.791 3.508-2.269 10.215-2.269 6.711 0 10.222 1.477 10.222 2.27 0 .791-3.51 2.269-10.222 2.269-6.707 0-10.215-1.478-10.215-2.27z"/><path d="M38.687 46.499a1.62 1.62 0 0 0-1.62 1.617 1.62 1.62 0 0 0 1.62 1.619 1.62 1.62 0 0 0 1.619-1.619 1.62 1.62 0 0 0-1.62-1.617zm0 2.257a.64.64 0 1 1 .001-1.281.64.64 0 0 1-.002 1.281zM40.554 12.885H36.82v.978h3.735v-.978z"/></g><path d="M60 9.436V1.184H1v60.122h59v-8.252" stroke="#FF6B09" stroke-width="2"/><defs><clipPath id="a"><path fill="#fff" transform="translate(10.027 10.202)" d="M0 0h41.998v41.084H0z"/></clipPath></defs></svg>
